Origami/64x64/apps/ksirk.svg

<svg width="64" height="64" version="1" xmlns="http://www.w3.org/2000/svg">
 <defs>
  <linearGradient id="linearGradient4736-7" x2="0" y1="24" y2="19" gradientTransform="matrix(1.83584,0,0,2,-10.03,-16)" gradientUnits="userSpaceOnUse">
   <stop stop-color="#484848" offset="0"/>
   <stop stop-color="#505050" offset=".494"/>
   <stop stop-color="#484848" offset="1"/>
  </linearGradient>
 </defs>
 <path d="m4 56v2c0 1.662 1.338 3 3 3h50c1.662 0 3-1.338 3-3v-2c0 1.662-1.338 3-3 3h-50c-1.662 0-3-1.338-3-3z" style="opacity:.2"/>
 <rect transform="matrix(0,-1,-1,0,0,0)" x="-60" y="-60" width="56" height="56" rx="3" ry="3" style="fill:#cccccc"/>
 <path d="m7 4c-1.662 0-3 1.338-3 3v1c0-1.662 1.338-3 3-3h50c1.662 0 3 1.338 3 3v-1c0-1.662-1.338-3-3-3h-50z" style="fill:#ffffff;opacity:.1"/>
 <path d="m12.9786 22c-0.5416 0-0.9786 0.446-0.9786 1v8c0 0.554 0.437 1 0.9786 1h32.066c1.9515 0 3.5212-1.544 3.646-3.504a1.37688 1.5 0 0 0 1.31 -1.496 1.37688 1.5 0 0 0 -1.308 -1.496c-0.126-1.96-1.696-3.504-3.646-3.504h-32.068z" style="fill-rule:evenodd;fill:url(#linearGradient4736-7)"/>
 <path d="m24 32v4h20l8 8v-2l-8-10z" style="fill:#8d6a3e"/>
 <path d="m28 31a7 7 0 0 0 -7 7 7 7 0 0 0 7 7 7 7 0 0 0 7 -7 7 7 0 0 0 -7 -7zm1 2.101562a5 5 0 0 1 1.775391 0.744141l-1.775391 1.775391v-2.519532zm-2 0.0039v2.515625l-1.775391-1.775391a5 5 0 0 1 1.775391 -0.740234zm5.183594 2.160156a5 5 0 0 1 0.71875 1.769531h-2.488282l1.769532-1.769531zm-8.365235 2e-3 1.767579 1.767578h-2.490235a5 5 0 0 1 0.722656 -1.767578zm-0.705078 3.767578h2.472657l-1.740235 1.740235a5 5 0 0 1 -0.732422 -1.740235zm7.300781 0h2.476563a5 5 0 0 1 -0.736328 1.740195l-1.740235-1.740235zm-3.414062 1.414063v2.449219a5 5 0 0 1 -1.732422 -0.716837l1.732422-1.732422zm2 0 1.734375 1.734375a5 5 0 0 1 -1.734375 0.710937v-2.445312z" style="fill:#b58a55"/>
 <circle cx="14" cy="51" r="0" style="fill:#8d6a3e"/>
</svg>

<svg xmlns="http://www.w3.org/2000/svg" width="64" height="64" version="1">
 <defs>
  <linearGradient id="linearGradient4736-7" x2="0" y1="24" y2="19" gradientTransform="matrix(1.83584,0,0,2,-10.03,-16)" gradientUnits="userSpaceOnUse">
   <stop offset="0" stop-color="#484848"/>
   <stop offset=".494" stop-color="#505050"/>
   <stop offset="1" stop-color="#484848"/>
  </linearGradient>
 </defs>
 <path style="opacity:0.2" d="m 4,56 0,2 c 0,1.662 1.338,3 3,3 l 50,0 c 1.662,0 3,-1.338 3,-3 l 0,-2 c 0,1.662 -1.338,3 -3,3 L 7,59 C 5.338,59 4,57.662 4,56 Z"/>
 <rect style="fill:#cccccc" width="56" height="56" x="-60" y="-60" rx="3" ry="3" transform="matrix(0,-1,-1,0,0,0)"/>
 <path style="opacity:0.1;fill:#ffffff" d="M 7 4 C 5.338 4 4 5.338 4 7 L 4 8 C 4 6.338 5.338 5 7 5 L 57 5 C 58.662 5 60 6.338 60 8 L 60 7 C 60 5.338 58.662 4 57 4 L 7 4 z"/>
 <path style="fill:url(#linearGradient4736-7);fill-rule:evenodd" d="M 12.9786,22 C 12.437,22 12,22.446 12,23 l 0,8 c 0,0.554 0.437,1 0.9786,1 l 32.066,0 c 1.9515,0 3.5212,-1.544 3.646,-3.504 A 1.37688,1.5 0 0 0 50.0006,27 1.37688,1.5 0 0 0 48.6926,25.504 C 48.5666,23.544 46.9966,22 45.0466,22 l -32.068,0 z"/>
 <path style="fill:#8d6a3e" d="m 24,32 0,4 20,0 8,8 0,-2 -8,-10 z"/>
 <path style="fill:#b58a55" d="m 28,31 a 7,7 0 0 0 -7,7 7,7 0 0 0 7,7 7,7 0 0 0 7,-7 7,7 0 0 0 -7,-7 z m 1,2.101562 a 5,5 0 0 1 1.775391,0.744141 L 29,35.621094 29,33.101562 Z m -2,0.0039 0,2.515625 -1.775391,-1.775391 A 5,5 0 0 1 27,33.105462 Z m 5.183594,2.160156 a 5,5 0 0 1 0.71875,1.769531 l -2.488282,0 1.769532,-1.769531 z m -8.365235,0.002 1.767579,1.767578 -2.490235,0 a 5,5 0 0 1 0.722656,-1.767578 z m -0.705078,3.767578 2.472657,0 -1.740235,1.740235 a 5,5 0 0 1 -0.732422,-1.740235 z m 7.300781,0 2.476563,0 a 5,5 0 0 1 -0.736328,1.740195 L 30.414062,39.035156 Z M 27,40.449259 27,42.898478 A 5,5 0 0 1 25.267578,42.181641 L 27,40.449219 Z m 2,0 1.734375,1.734375 A 5,5 0 0 1 29,42.894571 l 0,-2.445312 z"/>
 <circle style="fill:#8d6a3e" cx="14" cy="51" r="0"/>
</svg>
